X: 18848
T: In And Out The Windows
R: polka
M: 2/4
K: Amajor
ce A>c|cB B>B|Bd G>B|BA AA/B/|
ce A>c|cB B>B|Bd G>B|BA AA/B/|
cc B>A|G B2 B/c/|dd c>B|A c2 c/d/|
ee a>g|g f2 f|e>e dG|A4||

